X:1
T:Captain Mackintosh [1]
M:C
L:1/8
R:March
S:Button & Whitaker’s Pocket Collection of Favorite Marches, for Two German Flutes, Violins, or Fifes (London, 1780).
Z:AK/Fiddler’s Companion
K:D
A|d>e df dA AA|d>e df a3f|(bg)(ge) (af)(fd)|ef ge (dc) BA|d>e df dA AA|
d>e df a3f|(bg)(ge) (af)(fd)|(ge)(ec) d3::d|a>b a>b ge ef|g>a g>a f3d|
A(d/e/ f)d B(e/f/ g)e|bg ed (dc) BA|d>e df dA AA| d>e df. A3f|(bg)(ge) (af)(fd)| (ge)(ec) d3:|

